packages/kaspersky-hexa-ui-icons/src/iconsSVGs/24/UnknownDevice.svg

<svg width="24" height="24" viewBox="0 0 24 24" fill="none" xmlns="http://www.w3.org/2000/svg">
<path d="M13.0862 16.2915C13.0862 16.8914 12.5999 17.3777 12 17.3777C11.4001 17.3777 10.9138 16.8914 10.9138 16.2915C10.9138 15.6916 11.4001 15.2053 12 15.2053C12.5999 15.2053 13.0862 15.6916 13.0862 16.2915Z" fill="black"/>
<path d="M10.8276 9.77438C10.8276 9.13816 11.3601 8.60202 12.0189 8.60202C12.657 8.60202 13.1724 9.12135 13.1724 9.73684V10.0601C13.1724 10.3909 12.9473 10.6792 12.6264 10.7594C11.6706 10.9983 11 11.8572 11 12.8424V13.576C11 14.1283 11.4477 14.576 12 14.576C12.5523 14.576 13 14.1283 13 13.576V12.8424C13 12.7749 13.046 12.716 13.1115 12.6997C14.3227 12.3969 15.1724 11.3086 15.1724 10.0601V9.73684C15.1724 7.99428 13.7389 6.60202 12.0189 6.60202C10.2782 6.60202 8.82764 8.01108 8.82764 9.77438C8.82764 10.3267 9.27535 10.7744 9.82764 10.7744C10.3799 10.7744 10.8276 10.3267 10.8276 9.77438Z" fill="black"/>
<path fill-rule="evenodd" clip-rule="evenodd" d="M3 6C3 4.34315 4.34315 3 6 3H18C19.6569 3 21 4.34315 21 6V18C21 19.6569 19.6569 21 18 21H6C4.34315 21 3 19.6569 3 18V6ZM6 5C5.44772 5 5 5.44772 5 6V18C5 18.5523 5.44772 19 6 19H18C18.5523 19 19 18.5523 19 18V6C19 5.44772 18.5523 5 18 5H6Z" fill="black"/>
</svg>

<svg xmlns="http://www.w3.org/2000/svg" width="24" height="24" fill="none" viewBox="0 0 24 24"><path fill="#000" fill-rule="evenodd" d="M6 3C4.3431 3 3 4.3431 3 6v12c0 1.6569 1.3431 3 3 3h12c1.6569 0 3-1.3431 3-3V6c0-1.6569-1.3431-3-3-3zM5 6c0-.5523.4477-1 1-1h12c.5523 0 1 .4477 1 1v12c0 .5523-.4477 1-1 1H6c-.5523 0-1-.4477-1-1zm5.8276 3.7744c0-.6362.5325-1.1724 1.1913-1.1724.6381 0 1.1535.5193 1.1535 1.1348v.3233a.721.721 0 0 1-.546.6993A2.147 2.147 0 0 0 11 12.8424v.7336c0 .5523.4477 1 1 1s1-.4477 1-1v-.7336a.147.147 0 0 1 .1115-.1427c1.2112-.3028 2.0609-1.3911 2.0609-2.6396v-.3233c0-1.7425-1.4335-3.1348-3.1535-3.1348-1.7407 0-3.1913 1.409-3.1913 3.1724 0 .5523.4478 1 1 1s1-.4477 1-1m2.2586 6.5171c0 .5999-.4863 1.0862-1.0862 1.0862s-1.0862-.4863-1.0862-1.0862.4863-1.0862 1.0862-1.0862 1.0862.4863 1.0862 1.0862"/></svg>
